T: Tarantella
M: 6/8
L: 1/8
K: Amin
e2 e a2 a | e2 e ede | f2 f faf | e3 efe | d2 d ded | c2 c cdc | B2 B dcB | A3 :|cBc dcB | c2 c ABc | B2 B dcB | c2 A EAB |cBc dcB | c2 c ABc | B2 B dcB | A3 :|e2 e a2 a | e2 e ede | f2 f faf | e3 efe | d2 d ded | c2 c cdc | B2 B dcB | A3 :|cGc ece | g2 g gag | f2 f fgf | e2 c GAB |cGc ece | g2 g gag | bag fed | c3 :|
